X:0926
T:Cauld Kail.
M:2/4
L:1/8
Q:1/4=100
I: :: ||
N:bar 2 printed |F2A2 B/c/d/B/|
Z:Jack Campin * www.campin.me.uk * 2009
K:D
D|(F>A)`d>B|A>F`E>D|FA B/c/d/B/|A2  Dz/D/|F>A`d>B|GF````E>D      |FA B/c/d/B/|A2D:|
A| d>e``f>d|e>c`BA |d>ef>d     |e>c`A>A  |d>e`f>d|geHc (e/d/c/B/)|A>Fd>B     |A2D:|

